X: 43393
T: Wrong House, The
R: reel
M: 4/4
K: Bminor
|:bd'c'a bafa|a2 (3fed edcd|Bf f2 Ba a2|abfd efaf|
bd'c'a bafa|a2 (3fed edcd|B2fB B2 af|edcd B4:|
|:FBcd e2 FB|cded effa|bff aee fc|cdde edcA|
FBcd e2 FB|cded effa|bafe e2 fe|edcd B4:|

